DEF PROGRAMNAME()

EXT BAS (BAS_COMMAND: IN, REAL:IN)
DECL AXIS HOME

BAS (#INITMOV, 0)

HOME = {AXIS: A1 0, A2 -90, A3 90, A4 0, A5 0, A6 0}
PTP HOME
LIN {X 1300.0,Y 0.0,Z 1500.0,
LIN {X 1300.0,Y 0.0,Z 1748.0,
LIN {X 1300.0,Y 15.5720488432697,Z 1747.51062865021,
LIN {X 1300.0,Y 31.0826419239475,Z 1746.04444592599,
LIN {X 1300.0,Y 46.4705660172597,Z 1743.60723818071,
LIN {X 1300.0,Y 61.675092016884,Z 1740.2086239599,
LIN {X 1300.0,Y 76.636214604987,Z 1735.8620160412,
LIN {X 1300.0,Y 91.2948890658001,Z 1730.58456850029,
LIN {X 1300.0,Y 105.593264308138,Z 1724.39710901157,
LIN {X 1300.0,Y 119.474911177225,Z 1717.32405665088,
LIN {X 1300.0,Y 132.885045154791,Z 1709.3933255245,
LIN {X 1300.0,Y 145.770742568533,Z 1700.63621460499,
LIN {X 1300.0,Y 158.081149457675,Z 1691.0872842084,
LIN {X 1300.0,Y 169.767682270315,Z 1680.78421960051,
LIN {X 1300.0,Y 180.78421960051,Z 1669.76768227031,
LIN {X 1300.0,Y 191.087284208396,Z 1658.08114945768,
LIN {X 1300.0,Y 200.636214604987,Z 1645.77074256853,
LIN {X 1300.0,Y 209.3933255245,Z 1632.88504515479,
LIN {X 1300.0,Y 217.324056650878,Z 1619.47491117723,
LIN {X 1300.0,Y 224.397109011573,Z 1605.59326430814,
LIN {X 1300.0,Y 230.584568500286,Z 1591.2948890658,
LIN {X 1300.0,Y 235.862016041198,Z 1576.63621460499,
LIN {X 1300.0,Y 240.208623959901,Z 1561.67509201688,
LIN {X 1300.0,Y 243.607238180715,Z 1546.47056601726,
LIN {X 1300.0,Y 246.04444592599,Z 1531.08264192395,
LIN {X 1300.0,Y 247.510628650211,Z 1515.57204884327,
LIN {X 1300.0,Y 248.0,Z 1500.0,
LIN {X 1300.0,Y 247.510628650211,Z 1484.42795115673,
LIN {X 1300.0,Y 246.044445925991,Z 1468.91735807605,
LIN {X 1300.0,Y 243.607238180715,Z 1453.52943398274,
LIN {X 1300.0,Y 240.208623959901,Z 1438.32490798312,
LIN {X 1300.0,Y 235.862016041198,Z 1423.36378539501,
LIN {X 1300.0,Y 230.584568500286,Z 1408.7051109342,
LIN {X 1300.0,Y 224.397109011573,Z 1394.40673569186,
LIN {X 1300.0,Y 217.324056650878,Z 1380.52508882277,
LIN {X 1300.0,Y 209.3933255245,Z 1367.11495484521,
LIN {X 1300.0,Y 200.636214604987,Z 1354.22925743147,
LIN {X 1300.0,Y 191.087284208396,Z 1341.91885054232,
LIN {X 1300.0,Y 180.78421960051,Z 1330.23231772969,
LIN {X 1300.0,Y 169.767682270315,Z 1319.21578039949,
LIN {X 1300.0,Y 158.081149457675,Z 1308.9127157916,
LIN {X 1300.0,Y 145.770742568533,Z 1299.36378539501,
LIN {X 1300.0,Y 132.885045154791,Z 1290.6066744755,
LIN {X 1300.0,Y 119.474911177225,Z 1282.67594334912,
LIN {X 1300.0,Y 105.593264308138,Z 1275.60289098843,
LIN {X 1300.0,Y 91.2948890658002,Z 1269.41543149971,
LIN {X 1300.0,Y 76.636214604987,Z 1264.1379839588,
LIN {X 1300.0,Y 61.6750920168841,Z 1259.7913760401,
LIN {X 1300.0,Y 46.4705660172597,Z 1256.39276181928,
LIN {X 1300.0,Y 31.0826419239475,Z 1253.95555407401,
LIN {X 1300.0,Y 15.5720488432698,Z 1252.48937134979,
LIN {X 1300.0,Y 3.01980662698043E-14,Z 1252.0,
LIN {X 1300.0,Y -15.5720488432697,Z 1252.48937134979,
LIN {X 1300.0,Y -31.0826419239475,Z 1253.95555407401,
LIN {X 1300.0,Y -46.4705660172597,Z 1256.39276181929,
LIN {X 1300.0,Y -61.6750920168839,Z 1259.7913760401,
LIN {X 1300.0,Y -76.6362146049869,Z 1264.1379839588,
LIN {X 1300.0,Y -91.2948890658001,Z 1269.41543149971,
LIN {X 1300.0,Y -105.593264308138,Z 1275.60289098843,
LIN {X 1300.0,Y -119.474911177225,Z 1282.67594334912,
LIN {X 1300.0,Y -132.885045154791,Z 1290.6066744755,
LIN {X 1300.0,Y -145.770742568533,Z 1299.36378539501,
LIN {X 1300.0,Y -158.081149457675,Z 1308.9127157916,
LIN {X 1300.0,Y -169.767682270315,Z 1319.21578039949,
LIN {X 1300.0,Y -180.78421960051,Z 1330.23231772969,
LIN {X 1300.0,Y -191.087284208396,Z 1341.91885054232,
LIN {X 1300.0,Y -200.636214604987,Z 1354.22925743147,
LIN {X 1300.0,Y -209.3933255245,Z 1367.11495484521,
LIN {X 1300.0,Y -217.324056650878,Z 1380.52508882277,
LIN {X 1300.0,Y -224.397109011573,Z 1394.40673569186,
LIN {X 1300.0,Y -230.584568500286,Z 1408.7051109342,
LIN {X 1300.0,Y -235.862016041198,Z 1423.36378539501,
LIN {X 1300.0,Y -240.208623959901,Z 1438.32490798312,
LIN {X 1300.0,Y -243.607238180715,Z 1453.52943398274,
LIN {X 1300.0,Y -246.04444592599,Z 1468.91735807605,
LIN {X 1300.0,Y -247.510628650211,Z 1484.42795115673,
LIN {X 1300.0,Y -248.0,Z 1500.0,
LIN {X 1300.0,Y -247.510628650211,Z 1515.57204884327,
LIN {X 1300.0,Y -246.044445925991,Z 1531.08264192395,
LIN {X 1300.0,Y -243.607238180715,Z 1546.47056601726,
LIN {X 1300.0,Y -240.208623959901,Z 1561.67509201688,
LIN {X 1300.0,Y -235.862016041198,Z 1576.63621460499,
LIN {X 1300.0,Y -230.584568500286,Z 1591.2948890658,
LIN {X 1300.0,Y -224.397109011573,Z 1605.59326430814,
LIN {X 1300.0,Y -217.324056650878,Z 1619.47491117723,
LIN {X 1300.0,Y -209.3933255245,Z 1632.88504515479,
LIN {X 1300.0,Y -200.636214604987,Z 1645.77074256853,
LIN {X 1300.0,Y -191.087284208396,Z 1658.08114945767,
LIN {X 1300.0,Y -180.78421960051,Z 1669.76768227031,
LIN {X 1300.0,Y -169.767682270315,Z 1680.78421960051,
LIN {X 1300.0,Y -158.081149457675,Z 1691.0872842084,
LIN {X 1300.0,Y -145.770742568533,Z 1700.63621460499,
LIN {X 1300.0,Y -132.885045154791,Z 1709.3933255245,
LIN {X 1300.0,Y -119.474911177226,Z 1717.32405665088,
LIN {X 1300.0,Y -105.593264308138,Z 1724.39710901157,
LIN {X 1300.0,Y -91.2948890658001,Z 1730.58456850029,
LIN {X 1300.0,Y -76.636214604987,Z 1735.8620160412,
LIN {X 1300.0,Y -61.6750920168841,Z 1740.2086239599,
LIN {X 1300.0,Y -46.4705660172597,Z 1743.60723818071,
LIN {X 1300.0,Y -31.0826419239476,Z 1746.04444592599,
LIN {X 1300.0,Y -15.5720488432697,Z 1747.51062865021,
LIN {X 1300.0,Y -6.03961325396085E-14,Z 1748.0,
END